X: 1840
T: Rita Croker's Waltz Mazurka
B: australian traditional tunes wiki
M:3/4
L:1/8
R: Waltz Mazurka
Q: 1/4=120
K:D
V:1 
A|"D"(3fff f2e2|(3ddd d2d>c|B>c B>F A>^G|"A"G4^G2|"D"(3AAA A2d2|(3fff f3d|"G"e2B2"D"f2|"A"e2-e>c B>A|
"D"(3fff f2e2|(3ddd d2d>c|B>c B>F A>^G|"A"G4^G2|"D"(3AAA A2d2|(3fff f3d|"G"e2B2"A"c2|"D"d4-dA||
"D"f2e2d2|d2c3G|"G"B2c2B2|"D"A6|A2B2F2|"A"A^G=G4|G2A2E2|"D"F4(3DFA|
"D"f2e2d2|d2c3G|"G"B2c2B2|"D"A6|"D"f2g2f2|"G"e2B2"A"c2|"D"d2dA FA|D4||
% abcbook-tune_id 6342d53a4dd78f4ad79105f8


% abcbook-boost 0
% abcbook-tablature 
% abcbook-transpose 
% abcbook-lastupdated 1665324387158
% abcbook-soundfonts 
% abcbook-repeats 1
% NFF Book 2015

